X: 17322
T: Hidden Ground
R: reel
M: 4/4
K: Eminor
FG{c}AFE2 ef|Jge f2efJgf|eBABcF A2-|A2 G/F/G/A/GFE z|
FG{c}AFE2 ef|{a}fJg2Ja3-a2|{a}gf e6-|e6z2|
FG{c}AFEBef|{a}ge f2efgf|eBABcF JA2-|A2 G/F/G/A/GFE z|
FG{c}AFE2ef|{a}fJg2Jb3-ag/e/|z{G}a>g ee4-|e6z2|
FGJBG A4-|A6 Bd|dJe4-e3-|!>!e6z2|Bdge Jf4-|fg/e/fg/e/fz ef
J{a}g3-f4B/d/|Je4z2JB2-|AGG6-|G8-|G2F6|z8|
FG{c}AFE2 ef|Jge f2ef{a}gf|eBABcF A2-|A2 G/F/G/A/GFE z|
FG{c}AFE2 ef|{a}fJg2Ja3-a2|{a}gf e6-|!>!e6z2|
FG{c}AFEBef|{a}g2 f2ef{a}gf|eBABcF JA2-|A2 JB/d/B/A/GFE z|
FG{c}AFE2ef|{a}fJg2Jb3-ag/e/|aJa3/2g/e3-e2|e6z2|
FGB^A A4-|A4z2 JBd|JgdJe6-|e6z2|Bdge J{a}f4-|!>!f6ze/f/
J{a}g4-Fz2g|f/d/e2-!>!e3BA|GG4-G3-|G8-|G2F6|z8|

